src/assets/img/icons/twitter.svg

<svg xmlns="http://www.w3.org/2000/svg" xmlns:xlink="http://www.w3.org/1999/xlink" height="16.64464601474333" width="20.058134892639856">
  <defs>
    <rect id="rect-1" opacity="1" x="0.009828263827444061" y="0.004646014743457272" width="20" height="16.64"/>
    <mask id="mask-2" maskUnits="userSpaceOnUse" maskContentUnits="userSpaceOnUse">
      <rect opacity="1" x="0" y="0" width="20.058134892639856" height="16.64464601474333" fill="Black"/>
      <use xlink:href="#rect-1" fill="White"/>
    </mask>
  </defs>
  <g opacity="1">
    <g/>
    <g mask="url(#mask-2)">
      <g opacity="1">
        <g opacity="1">
          <g opacity="1">
            <path fill="rgb(255,255,255)" fill-opacity="1" opacity="1" fill-rule="evenodd" d="M19.689828263827444 1.9446460147436162C19.24525606528969 2.1434058290856983 18.78329955136467 2.300738844697843 18.309828263827452 2.4146460147436146C18.83764469035139 1.9141632479139388 19.22987718275003 1.2879675144354084 19.449828263827445 0.5946460147436168C19.472098835092265 0.5066309057180804 19.440510021539723 0.41375061330198887 19.369196038700203 0.357563838943578C19.297882055860683 0.3013770645851674 19.200188706408436 0.29239868311869904 19.119828263827447 0.3346460147436161C18.461689306872568 0.7239983541156736 17.75112664211698 1.0169791684935694 17.009828263827437 1.2046460147436164L16.879828263827445 1.2046460147436164C16.743569903180422 1.2045473855886994 16.612022025388757 1.1547725129107729 16.509828263827444 1.0646460147436163C15.720156151884831 0.37680129381945715 14.707058333597283 2.2737367544323206e-13 13.659828263827444 0.00464601474361545C13.195188160585857 0.005205088436253193 12.733302533595232 0.07600507505525395 12.289828263827445 0.21464601474361708C10.888354702877317 0.6502498206351737 9.817993284310315 1.7889321808128331 9.469828263827445 3.2146460147436167C9.344271277433958 3.7347958365312577 9.310430523742747 4.272863820221497 9.369828263827443 4.804646014743614C9.386525236029211 4.8429035842392 9.386525236029211 4.8863884452480315 9.369828263827445 4.924646014743615C9.337775731561422 4.981420905487387 9.274479695782077 5.01306892337706 9.209828263827445 5.004646014743616C6.158728769240995 4.725801905425444 3.3512983667268452 3.221048077856807 1.4298282638274442 0.8346460147436163C1.387248385288945 0.7539793850371775 1.301022069989782 0.7060976920878576 1.21003901148725 0.7125964819808955C1.119055952984718 0.7190952718739336 1.0405105515595616 0.7787463731607052 1.0098282638274445 0.8646460147436164C0.022453101336963845 2.5668750621702747 0.3102558238361675 4.721284013450021 1.709828263827446 6.104646014743618C1.360473259891388 6.025007461319752 1.0239085172089808 5.897112859100438 0.7098282638274465 5.724646014743618C0.641233658973937 5.691276048738589 0.5605569921005655 5.694085920722859 0.4944502582795691 5.732147373528887C0.4283435244585728 5.770208826334915 0.38540821897437405 5.838569483889853 0.37982826382744445 5.914646014743618C0.3781078692748863 7.648960762797729 1.4137301182489543 9.216176181397731 3.0098282638269036 9.894646014743387L2.8698282638274444 9.894646014743387C2.6248306381554043 9.894412480052306 2.380405827234453 9.870974484484545 2.139828263827444 9.824646014743617C2.0618635993578986 9.81127229330049 1.982497098466492 9.838901772886832 1.9296920288712305 9.897799735127702C1.876886959275969 9.956697697368568 1.8580538791381187 10.038598519699477 1.8798282638274446 10.114646014743617C2.3755869398478833 11.656333113525776 3.6919528291651145 12.791264408127727 5.289828263827446 13.054646014743614C3.974012769629185 13.938883332618463 2.425148509039183 14.41224409540552 0.8398282638274452 14.414646014743614L0.33982826382744463 14.414646014743614C0.18844605994750707 14.41471767867936 0.056526967068976454 14.51777946999071 0.019828263827444695 14.664646014743614C0 14.799833164341411 0.06302298322751378 14.933757003699878 0.1798282638274448 15.004646014743612C1.987020838251739 16.0541693883284 4.039985730838734 16.606227174570282 6.12982826382745 16.604646014743615C7.8816966633203975 16.619788174534026 9.615633909790857 16.251155846544243 11.209828263827445 15.524646014743613C12.631051542891939 14.864620897513412 13.898261633148387 13.914213329821072 14.929828263827442 12.734646014743614C15.90785617918161 11.638468627350704 16.680212922205754 10.374920095999805 17.209828263827447 9.004646014743614C17.726937656919684 7.660680458159708 17.997924418464912 6.2346126255279595 18.00982826382745 4.794646014743623L18.00982826382745 4.724646014743616C18.00887089462085 4.503563218547221 18.108157721571764 4.293957694984177 18.27982826382745 4.15464601474361C18.94770919853501 3.618494156463038 19.530931463986867 2.984703486492232 20.00982826382744 2.2746460147436203C20.058134892639863 2.190561063802757 20.04851315924143 2.085211084906097 19.985773659596635 2.0112681031818758C19.923034159951843 1.9373251214576546 19.820657153910997 1.9106765860151644 19.729828263827443 1.9446460147436162L19.689828263827444 1.9446460147436162Z"/>
          </g>
        </g>
      </g>
    </g>
  </g>
</svg>

<svg xmlns="http://www.w3.org/2000/svg" xmlns:xlink="http://www.w3.org/1999/xlink" height="16.645" width="20.058"><defs><path id="a" d="M0.01 0.005H20.01V16.645H0.01z"/><mask id="b" maskUnits="userSpaceOnUse"><path d="M0 0H20.058V16.645H0z"/><use xlink:href="#a" fill="#fff"/></mask></defs><g mask="url(#b)"><path fill="#FFF" fill-rule="evenodd" d="M19.69 1.945a7.92 7.92 0 0 1-1.38.47 4.3 4.3 0 0 0 1.14-1.82.23.23 0 0 0-.33-.26 8 8 0 0 1-2.11.87h-.13a.56.56 0 0 1-.37-.14 4.31 4.31 0 0 0-2.85-1.06 4.61 4.61 0 0 0-1.37.21 4.18 4.18 0 0 0-2.82 3 4.6 4.6 0 0 0-.1 1.59.15.15 0 0 1 0 .12.16.16 0 0 1-.16.08A11.31 11.31 0 0 1 1.43.835a.23.23 0 0 0-.42.03 4.32 4.32 0 0 0 .7 5.24 3.86 3.86 0 0 1-1-.38.23.23 0 0 0-.33.19 4.32 4.32 0 0 0 2.63 3.98h-.14a3.88 3.88 0 0 1-.73-.07.23.23 0 0 0-.26.29 4.32 4.32 0 0 0 3.41 2.94 8 8 0 0 1-4.45 1.36h-.5a.33.33 0 0 0-.32.25.34.34 0 0 0 .16.34 11.83 11.83 0 0 0 5.95 1.6 12 12 0 0 0 5.08-1.08 11.22 11.22 0 0 0 3.72-2.79 12.22 12.22 0 0 0 2.28-3.73 12 12 0 0 0 .8-4.21v-.07a.73.73 0 0 1 .27-.57 8.52 8.52 0 0 0 1.73-1.88.23.23 0 0 0-.28-.33h-.04z"/></g></svg>
